X:1
T:Memor fui dierum
T:Constantijn Huygens
T:Memor fui dierum
T:Psalmus 143:5-7
C:Constantijn Huygens
%%score 1 { ( 2 4 ) | 3 }
L:1/8
Q:1/4=80
M:4/4
K:F
V:1 treble nm="Voice" snm="V"
V:2 treble nm="Organ" snm="Org."
V:4 treble 
V:3 bass 
V:1
 z4 G2 G2 | G2 G2 z2 G2 | G2 G2 A2 A2 | B4 G2 (B2 | c2) G2 G2 G2 | G2 E2 A3 G | ^F2 A2 A>A A>A | %7
w: Me- mor|fu- i di-|e- rum an- ti|quo- rum, me-|* di- ta- tus|sum in om- ni-|bus, in om- ni- bus o-|
 A2 Bc d4- | d4 e4 | z d f>f ee d2 | z d e2 ^c4 | d6 B2 | G2 E2 A4 | ^F2 =F4 D2- | D2 G4 F2 | %15
w: pe- ri- bus tu-|* is;|in fa- ctis ma- nu- um|tu- a- rum|me- di-|ta- bar, me-|di- ta- bar,|_ me- di-|
 E4 D4 :: z2 D2 (D2 A2) | A2 A2 (A2 d2) | c2 cc c2 ^cc | d3 d e4 |[M:3/4] f2 ff e2 | c4 dd | %22
w: ta- bar.|Ex- pan- *|di, ex- pan- *|di ma- nus me- as ad|te, ad te;|a- ni- ma me-|a si- cut|
[M:4/4] d4 d2 _ee | f6 B2 | B6 AA | A>A A>d ^c>c c>c | d>d ee g4- | g2 ff e3 d | d6 c2 | B4 A2 G2 | %30
w: ter- ra si- ne|a- qua|ti- bi. Ve-|lo- ci- ter, ve- lo- ci- ter ex-|au- di me, ex- au-|* di me, Do- mi-|ne; de-|fe- cit, de-|
 G4 G2 A2- | AG ^F2 z2 G2- | G4 ^F2 z2 | z8 :| %34
w: fe- cit spi-|* ri- tus me-|* us.||
V:2
 [B,DG]8- | [B,DG]8 | [DGB]4 [DA]4 | [B,DG]8 | G6 [GB]2 | c3 B A4- | [D^FA]8 | [FA]4 B2 d2- | %8
 d6 ^c2 | d4 A4 | [DGB]4 [^CEA]4 | d3 c [DB]4 | [Gc]4 A3 G | [^FA]2 [=F-d]4 dc | [DB]2 [Cc]2 A4- | %15
 [EA-]4 [^FA]4 :: [A,DF]4 [F,A,D]4 | E4 D4 | C2 E2 [CF]2 [^CG-]2 | G2 FG A4- |[M:3/4] A2 B2 c2- | %21
 c4 d2- |[M:4/4] [Ad]4 f2 _e2 | [FBd]4 [Fc]4 | [GB]6 A2 | [FA-d]4 [EA^c]4 | [Fd]2 [Ee]6 | d6 ^c2 | %28
 [Fd]4 A4- | [DB]4 [DA]4 | G6 A2 | ^F4 G4- | G4 ^F4 | [=B,DG]8 :| %34
V:3
 G,8- | G,8 | G,4 ^F,4 | G,8 | C,4 B,,2 G,,2 | C,4 ^C,4 | D,8 | D2 C2 B,4 | A,8 | D4 ^C2 D2 | %10
 G,4 A,2 G,2 | F,2 ^F,2 G,4 | E,2 C,4 ^C,2 | D,4 B,,3 A,, | G,,2 F,,2 ^C,,2 D,,2 | A,,,4 D,,4 :: %16
 D,4 D,4 | C,4 B,,4 | A,,2 A,G, F,2 E,2 | D,4 ^C,4 |[M:3/4] D,4 E,2 | F,4 B,2 | %22
[M:4/4] F2 _E2 D2 C2 | B,4 A,4 | G,4 F,3 E, | D,4 A,4 | D2 ^C6 | D2 D,2 A,4 | B,4 ^F,4 | G,4 D,4 | %30
 _E,2 D,2 C,4 | D,8 | D,,8 | G,,8 :| %34
V:4
 x8 | x8 | x8 | x8 | [C_E]4 D4 | [EG]8 | x8 | x8 | x8 | x8 | x8 | [DA]4- A2 G2 | G2 E2- [EA]4 | %13
 D6 [DF]2 | G4- [EG]2 [D-F]2 | D2 ^C2 D4 :: x8 | A,6 G,2 | E,2 CB, A,4 | [A,D]4 E4 | %20
[M:3/4] [DF]4 G2 | A4 B2 |[M:4/4] A2 G2 [F-A]4 | x8 | D8 | x8 | A2 A4 B2 | [FA-]4 [EA]4 | D4 D4 | %29
 A2 G2 F4 | [B,_E-]4 [CE]4 | [A,D-]4 [B,D]4 | [A,D]8 | x8 :| %34

